!!!OTL: ACH MUTTER ES HUNGERT MICH
!!!ARE: Europa, Mitteleuropa, Deutschland, Halle; Eisleben
!!!SCT: E0189
!!!YEM: Copyright 1995, estate of Helmut Schaffrath.
**kern
*ICvox
*Ivox
*M4/4
*k[b-]
*F:
{4f
=1
8a
8a
4a
8cc
8cc
4a
=2
4a
4g
4g
4r}
=3
{4a
4a
4cc
4a
=4
4a
4g
4g
4r}
=5
{4f
4dd
4dd
4dd
=6
4dd
4cc
4cc
8r}
{8b-
=7
8a
8a
4a
4cc
8cc
8b-
=8
2a
4r}
==
!!!AGN: erzaehlendes Volks - Lied, Sage, Familien - Geschichte
!!!ONB: ESAC (Essen Associative Code) Database: ERK1
!!!AMT: simple quadruple
!!!AIN: vox
!!!EED: Helmut Schaffrath
!!!EEV: 1.0
*-
